dist/img/star.svg

<svg width="18" height="18" viewBox="0 0 18 18" fill="none" xmlns="http://www.w3.org/2000/svg">
<path d="M11.2673 7.50003C11.0031 7.50003 10.77 7.32721 10.6932 7.07441L9.57407 3.39007C9.40169 2.82258 8.59824 2.82258 8.42587 3.39007L7.30675 7.07441C7.22996 7.32721 6.99685 7.50003 6.73265 7.50003H3.37373C2.78988 7.50003 2.54996 8.2493 3.02521 8.58843L5.78213 10.5557C5.99275 10.706 6.08329 10.9744 6.00676 11.2216L4.9259 14.7126C4.7533 15.27 5.39754 15.7208 5.86215 15.3677L8.63717 13.2583C8.85162 13.0953 9.14841 13.0952 9.36298 13.258L12.1464 15.3704C12.6111 15.723 13.2548 15.2722 13.0823 14.7149L12.0006 11.2213C11.9241 10.9743 12.0145 10.706 12.2248 10.5557L14.9776 8.58816C15.4524 8.2488 15.2123 7.50003 14.6287 7.50003H11.2673Z" fill="#F87C09"/>
</svg>

<svg width="18" height="18" fill="none" xmlns="http://www.w3.org/2000/svg"><path d="M11.267 7.5a.6.6 0 0 1-.574-.426L9.574 3.39c-.172-.567-.976-.567-1.148 0l-1.12 3.684a.6.6 0 0 1-.573.426h-3.36c-.583 0-.823.75-.348 1.088l2.757 1.968a.6.6 0 0 1 .225.666l-1.081 3.49c-.173.558.472 1.009.936.656l2.775-2.11a.6.6 0 0 1 .726 0l2.783 2.112c.465.353 1.109-.098.936-.655l-1.081-3.494a.6.6 0 0 1 .224-.665l2.753-1.968c.474-.34.234-1.088-.35-1.088h-3.36Z" fill="#F87C09"/></svg>
